X:38
T:When Order In This Lane,3parts. JNu.39
M:4/4
L:1/8
Q:1/2=60
S:James Nuttall MS,c1830?,Rossendale,East Lancs.
R:.March
O:England
A:East Lancashire
Z:vmp.Chris Partington
V:1
V:2
V:3 clef=bass
K:Bb
[V:1] F2 | B2B>cd2B2 | f2f>de2c2 | d2e>cB2A2 | B4z2F2 |
[V:2] F2 | D2D>FB2D2 | F2F>FF2F2 | F2G>ED2C2 | D4z2F2 |
[V:3] z2 | B,,2F,2B,2B,,2 | D,2B,,2E,2F,2 | B,2D,>E,F,2F,,2 | B,,4z2F,2 |
%
[V:1] B2B>cd2B2 | f2f>de2c2 | d2e>cB2A2 | B2B>BB2zc |
[V:2] D2D>FB2D2 | F2F>FF2F2 | F2G>ED2C2 | D2D>DD2z2 |
[V:3] B,,2B,,2B,2B,,2 | D,2B,,2E,2F,2 | B,2E,2F,2G,2 | B,,2B,,>B,,B,,2z2 |
%
[V:1] c2c>Af2f>c | a2a>gf2d2 | c2c>AG2c2 | F2F>FF2F>E |
[V:2] A2A>FA2A>A | c2c>cA2F2 | F4=E4 | F2F>FF2z2 |
[V:3] F,2F,2F,2F,2 | C,2C,2F,2B,,2 | C,4C,4 | F,2F,>F,F,2z2 |
%
[V:1] D2F2B3A | .G.A.B.Gc3B | .A.B.c.de2d2 | d2c>cc2zF |
[V:2] z4B,4 | B,4C4 | D2.A.BA2B2 | B2A>AA2F2 |
[V:3] B,,4B,,4 | B,,4B,,4 | F,2D,2C,2B,,2 | F,2F,>F,F,2z2 |
%
[V:1] (f2f>e)(e2e>c) | d2d>Bc2f2 | b3f .e.d.c.B | f2f>ff3F |
[V:2] (d2d>B)(c2c>A) | B2B>DF2F2 | B3f edcB | F2F>FF3F |
[V:3] B,,2B,,2C,2C,2 | B,,2B,,2F,2F,2 | B,,3F, E,D,C,B,, |\
F,,2F,,>F,,F,,2F,2 |
%
[V:1] B2B>cd2B2 | f2f>de2c2 | d2e>cB2A2 | B2z2z2g2 |
[V:2] D2D>FB2F2 | F2F>FF2F2 | F2G>ED2C2 | B,2z2z2e2 |
[V:3] B,,2F,2B,2B,,2 | B,,2B,,2E,2F,2 | B,2D,>E,F,2F,,2 |\
B,,2B,,>B,,B,,2z2 |
%
[V:1] f4z2g2 | f4z2g2 | f2f>ed2c2 | B4z2g2 |
[V:2] d4z2e2 | d4z2e2 | d2d>cB2A2 | B4z2e2 |
[V:3] z2B,,2B,,>B,,z2 | z2B,,2B,,>B,,z2 |\
B,,>C,D,>E,F,2F,,2 | B,,2B,,>B,,B,,2z2 |
%
[V:1] f4z2g2 | f4z2g2 | f2f>ed2c2 | B2D>DD2z2|]
[V:2] d4z2e2 | d4z2e2 | d2d>cB2A2 | B2B>BB2z2|]
[V:3] z2B,,2B,,>B,,z2 | z2B,,2B,,>B,,z2 |\
B,,>C,D,>E,F,2F,,2 | B,,2B,,>B,,B,,2z2|]

